X: 740
T: Mama rangwu dangbiang qu
%%abc-version 2.0
%%abcx-abcm2ps-target-version 5.9.1 (29 Sep 2008)
%%abc-creator hum2abc beta
%%abcx-conversion-date 2013/10/02 07:52:30
%%abc-edited-by Helmut Schaffrath
%%humdrum-veritas 2976464613
%%humdrum-veritas-data 475572914
%%continueall 1
%%barnumbers 0
L: 1/8
M: 2/4
K: F
f _e e d [I:setbarnb 1]| 
d Ac2 | 
f _e e d | 
d Ac2 | 
A2A c | 
f _e e d | 
d A c d | 
c4 | 
F2F D | 
f2f d | 
c2f f | 
G A G A | 
c2c G | 
A c A G | 
F4 |]  



